X:119
T:Wrexham Quick March
S:John Moore's Book 2
Z:Transcribed by Edmund Spriggs 05/2021
%%VWML: Moore1-4494-p92-0
F:http://www.vwml.org/record/Moore2/4494/p92
M:2/4
N:The tune is written with two sharps but should have one sharp.
N:Last note in first and second strains should be dotted.
N:In bar 15, the first semiquaver lacks its ledger line in the manuscript.
N:Third strain has a repeat mark at the beginning but not at the end.
N:In the third strain, the bar line between bar 6 and bar 7 is redundant.
N:In the third strain, the second note of the penultimate bar should perhaps be a quaver.
L:1/8
K:D
d|gddd|dBBB|cBcd|e2z1f|
gfed|g>aba|g2f2|g2:|
f/g/|aaaa|bagg|bbbb|c'aa>a|
b>ga>f|g>efg|a>b a/g/f/e/|de d/c/B/A/|
Gddd|dBBB|cBcd|edef|
gfed|g>aba|g2f2|g2:||
|:d/B/|Bgfg|egdg|cd/e/ dc|B2z1d/c/|
Bgfg|e/g/f/g/|d/g/f/g/|e c'/b/a/g/f/|g3|]

